X: 15
T:Tripping Up the Stairs
M:6/8
R:jig
K:D
FAA GBB|ABd fed|cBc ABc|dfe dAG|FAA GBB|ABd fed|cBc ABc|1 dfe d2A:|2 dfe d2c||
|:dBB fBB|~f3 fed|cAA eAA|~e3 edc|dBB fBB|~f3 fed|cBc ABc|1 dfe d2c:|2 d fe d2A||

